!!!!SEGMENT: pl-wumfc--n43034_szymanowski-karol--trzy-fragmenty-z-poematow-jana-kasprowicza-op-5-no-3-moja-piesn-wieczorna-blogoslawiona-niech-bedzie-ta-chwila.krn
!!!cenid: 19xx:72
!!!COM: Szymanowski, Karol
!!!COM-rismID: pe30106403
!!!CDT: 1882-1937
!!!CNT: Polish
!!!OTL: Trzy fragmenty z poematów Jana Kasprowicza op. 5
!!!PDT:
!!!AGN: Secular; Song
!!!YEC: Copyright 2022 Narodowy Instytut Fryderyka Chopina (https://polishscores.org)
!!!YEM: License CC-BY-4.0 (https://creativecommons.org/licenses/by/4.0)
!!!SMS-siglum: PL-Wumfc
!!!SMS-shelfmark: N43034
!!!SMS-variant:
!!!SMS-altvar:
!!!SMS-shelfwork: W
!!!NIFC-rismSourceID: 1001173608
!!!NIFC-rismChildID: 1001173608
!!!NIFC-islandoraID: pl-wumfc:9273
!!!URL-pdf-islandora: https://repozytorium.nifc.pl/islandora/object/pl-wumfc%3A9273/datastream/PDF/view
!!!URL-scan: https://polish.musicsources.pl/pl/lokalizacje/galeria/druki-muzyczne/12467/3 @EN{Scan on Polish Music Sources Website} @PL{Skany w portalu Dziedzictwo Muzyki Polskiej w otwartym dostępie}
!!!IIIF:
!!!ONB-nifc:
!!!AIN: 1 piano 1 vox
!!!key: A-
**kern	**dynam	**kern	**dynam	**kern	**text	**text	**dynam
*part2	*part2	*part2	*part2	*part1	*part1	*part1	*part1
*staff3	*	*staff2	*	*staff1	*staff1	*staff1	*
*I"Piano	*	*I"Piano	*	*I"CANTO.	*	*	*
*I'[pf]	*	*I'[pf]	*	*I'[V]	*	*	*
*ICklav	*	*ICklav	*	*ICvox	*	*	*
*Ipiano	*	*Ipiano	*	*Ivox	*	*	*
*clefF4	*	*clefG2	*	*clefG2	*	*	*
*k[b-e-a-d-]	*	*k[b-e-a-d-]	*	*k[b-e-a-d-]	*	*	*
*A-:	*	*A-:	*	*A-:	*	*	*
*M4/4	*	*M4/4	*	*M4/4	*	*	*
*met(c)	*	*met(c)	*	*met(c)	*	*	*
=1	=1	=1	=1	=1	=1	=1	=1
!	!	!	!	!LO:TX:a:B:t=Adagio.	!	!	!
4r	.	4r	pp	1r	.	.	.
!LO:TX:a:i:t=ten.	!	!LO:TX:a:i:t=ten.	!	!	!	!	!
([2.CC/ [2.EE- [2.AA- [2.C	.	(>[2.A-/ 2.c [2.e- [2.a-	<	.	.	.	.
.	.	.	[ >]	.	.	.	.
=2	=2	=2	=2	=2	=2	=2	=2
*^	*	*^	*	*	*	*	*
2CC/] 2EE-] 2AA-_ 2C]	2ryy	.	2A-/] 2e-_> 2a-]	2ryy	.	4a-/	Bło-	Bé-	.
.	.	.	.	.	.	8.a-/	-go	-ni-	.
.	.	.	.	.	.	16e-/	sła-	-c	.
4.DD-/ 4.D-	2AA-\_>	.	4.A-/ 4.f	4e-\]	>	4e-/	-wio-	soit	.
.	.	.	.	8d-\L	] <	8d-/	-ną	l'heu-	.
8CC/) 8C	.	.	8A-/) [8a-	8e-\J	.	8a-/	niech	-re	.
*v	*v	*	*	*	*	*	*	*	*
=3	=3	=3	=3	=3	=3	=3	=3	=3
(2DD-/ 2AA-] 2D-	.	(2A-/ 2a-]	(4f\	.	4a-/	bę-	my-	.
.	.	.	4f-X\	[	8b-\	-dzie	-sté-	.
.	.	.	.	.	8b-\	ta	-ri-	.
4EE-/ 4E-	.	2A-/ 2c [2a-	4g-X\	mf >	4.cc\	chwi-	-eu-	.
4DDn/ 4Dn	.	.	[>4fn\)	.	.	.	.	.
.	.	.	.	]]	8f/	-la,	-se	.
*	*	*v	*v	*	*	*	*	*
=4	=4	=4	=4	=4	=4	=4	=4
[1DD-X) [1D-X	.	[1A-) [1c-X 1f_ 1a-]	p >	4a-/	Kie-	Quand	.
.	.	.	.	8g/	-dy	l'â-	.
.	.	.	.	8f/	się	-me	.
.	.	.	.	6f/	ro-	chan-	.
.	.	.	.	6.g/	-dzi	-te	.
.	.	.	.	12f/	wie-	son	.
=5	=5	=5	=5	=5	=5	=5	=5
!	!	!LO:TX:a:i:t=rall.	!	!	!	!	!
1DD-;] 1D-]	.	1A-;] 1c-] 1f_	]]	6.f/	-czor-	gra-	.
.	.	.	.	12e-/	-ny	-ve	.
.	.	.	.	6d-/	hymn	can-	.
!	!	!	!	!	!	!	!LO:HP:a
.	.	.	.	3c/	du-	-ti-	>
.	.	.	.	6c-X/	-szy!	-que	]]
!!LO:LB:g=original	!	!	!	!	!	!	!
=6||;<	=6||	=6||	=6||	=6||;	=6||;	=6||;	=6||;
*M3/4	*	*M3/4	*	*M3/4	*	*	*
*	*	*^	*	*	*	*	*
!	!	!LO:TX:a:t=(W rytmie mazurka, lecz bardzo wolno.)	!	!	!LO:TX:a:B:t=Moderato.	!	!	!
4CC/ 4C	.	4f/]	4G\ 4B-	pp	2.r	.	.	.
!LO:TX:a:i:t=ten.	!	!	!	!	!	!	!	!
[2C\ [2G	.	4r	4ryy	.	.	.	.	.
.	.	4r	4ryy	.	.	.	.	.
*	*	*v	*v	*	*	*	*	*
=7	=7	=7	=7	=7	=7	=7	=7
4C\] 4G]	.	2.r	.	2.r	.	.	.
[2C\ [2G	.	.	.	.	.	.	.
=8	=8	=8	=8	=8	=8	=8	=8
4C\] 4G]	.	2.r	.	2.r	.	.	.
[2C\ [2G	.	.	.	.	.	.	.
=9	=9	=9	=9	=9	=9	=9	=9
*	*	*^	*	*	*	*	*
*	*	*	*	*^	*	*	*	*
4C\] 4G]	.	(2f/ 2g	12d-\L	pp	.	4r	.	.	.
.	.	.	12e-\	.	.	.	.	.	.
.	.	.	12d-\J	.	<	.	.	.	.
!	!	!	!	!LO:HP:a	!	!	!	!	!
2C\ 2G	.	.	4B-\	<	.	4.b-\	Kie-	Lors-	.
.	.	4a-/	4c\	.	.	.	.	.	.
.	.	.	.	.	.	8a-/	-dy	-que	.
*	*	*v	*v	*	*	*	*	*	*
=10	=10	=10	=10	=10	=10	=10	=10	=10
4CC/ 4C	.	2.d-/) 2.f 2.b-	.	[[	12g/	od	des	.
.	.	.	.	.	12b-/	ci-	champs	.
.	.	.	.	.	12a-/	-chych	do-	.
[2C\ 2G	.	.	.	.	4.g/	pól,	-rés	.
.	.	.	.	.	8a-/	od	de	.
=11	=11	=11	=11	=11	=11	=11	=11	=11
*^	*	*	*	*	*	*	*	*
!LO:TUP:b	!	!	!	!	!	!	!	!	!
(12G/L	2.C\_	.	(>2d-/ 2f 2b-	.	<	2b-\	rżysk	blés	.
12B-/	.	.	.	.	.	.	.	.	.
12A-/J	.	.	.	.	.	.	.	.	.
4G/	.	.	.	.	.	.	.	.	.
4A-/	.	.	[4d-/ [>4f 4cc	.	[[	4cc\	i	des	.
*	*	*	*	*v	*v	*	*	*	*
!!LO:LB:g=original	!	!	!	!	!	!	!	!
=12	=12	=12	=12	=12	=12	=12	=12	=12
*	*	*	*^	*	*	*	*	*
*	*	*	*	*	*^	*	*	*	*
*	*	*	*	*Xtuplet	*	*	*	*	*	*
!	!	!	!	!	!LO:HP:a	!	!	!	!	!
4B-/	2.C\]	.	8d-/L] 8dd-	(12f\L]	>	.	4dd-\	rzecz-	cal-	.
.	.	.	.	12cc\	.	.	.	.	.	.
.	.	.	8dd-/J	.	.	.	.	.	.	.
.	.	.	.	12b-\J	.	.	.	.	.	.
.	.	.	(<16qqcc/LL	.	.	.	.	.	.	.
.	.	.	16qqdd-/JJ	.	.	.	.	.	.	.
4en/	.	.	4a-/) 4cc	4rFyy	.	>	4.a-/	-nych	-mes	.
4d-/	.	.	4g/ 4b-	4ryy	.	.	.	.	.	.
.	.	.	.	.	.	.	8b-\	po-	ri-	.
=13	=13	=13	=13	=13	=13	=13	=13	=13	=13	=13
4G/	(2D-\	.	4b-/	2.en\)	.	.	(12g/L	-brze-	-va-	.
.	.	.	.	.	.	.	12b-/	.	.	.
.	.	.	.	.	.	.	12a-/J)	.	.	.
4A-/	.	.	4a-/	.	.	.	(4a-/	-ży,	-ges	.
!	!	!	!LO:TX:a:i:t=poco rit.	!	!	!	!	!	!	!
4B-/)	4C\)	.	4g/)	.	]]	]]	4g/)	.	.	.
*	*	*	*	*	*v	*v	*	*	*	*
=14	=14	=14	=14	=14	=14	=14	=14	=14	=14
*	*	*	*	*	*	*^	*	*	*
!	!	!	!LO:TX:a:i:t=a tempo	!	!	!	!	!	!	!
(2G/	[2.D-\	.	(8.b-/L	2f\	<	8.b-/L	8.b-\	Od	Et	.
.	.	.	16cc/Jk	.	.	16cc/Jk	16cc\	.	des	.
.	.	.	4b-/	.	.	4b-/	4ryy	przecz-	rou-	.
4A-/	.	.	8a-/L	4en\	.	8a-/	8ryy	-nic	-tes	.
.	.	.	8g/J	.	[[	8g/	8ryy	i	pou-	.
*v	*v	*	*	*	*	*v	*v	*	*	*
=15	=15	=15	=15	=15	=15	=15	=15	=15
2D-\]) 2G	.	8.b-/L	2.f\	>	8.b-\	od	-dreuses	.
.	.	16cc/Jk	.	.	16cc\	u-	et	.
.	.	2b-/)	.	.	4.b-\	-go-	blan-	.
4DD-/ 4D-	.	.	.	.	.	.	.	.
.	.	.	.	]]	8f/	-rów,	-ches	.
=16	=16	=16	=16	=16	=16	=16	=16	=16
*^	*	*	*	*	*^	*	*	*
(2G/	[2.D-\	.	(8.b-/L	2f\	<	8.b-/L	8.b-\	Od	Des	.
.	.	.	16cc/Jk	.	.	16cc/Jk	16cc\	.	chau-	.
.	.	.	4b-/	.	.	4b-/	4ryy	wy-	mié-	.
4A-/	.	.	8a-/L	4en\	.	8a-/L	8a-\	-pa-	-res	.
.	.	.	8g/J	.	[[	8g/J	8g\	.	aux	.
*	*	*	*	*	*	*v	*v	*	*	*
!!LO:PB:g=original	!	!	!	!	!	!	!	!	!
=17	=17	=17	=17	=17	=17	=17	=17	=17	=17
2G/)	2D-\]	.	8.b-/L	2f\	.	8.b-\	-czo-	hum-	.
.	.	.	16cc/Jk	.	.	16cc\	-nych	-bles	.
.	.	.	4b-/	.	.	2b-\	chat	toits	.
4DD-/ 4D-	4ryy	.	4f/)	4f\	.	.	.	.	.
=18	=18	=18	=18	=18	=18	=18	=18	=18	=18
*	*	*	*	*	*	*^	*	*	*
(4G/	2D-\	.	(8.b-/L	4f\	<	(8.b-\L	4ryy	I	Des	.
.	.	.	16cc/Jk	.	.	16cc\Jk)	.	.	.	.
4A-/)	.	.	4b-/)	4en\	.	4b-\	4ryy	od	prés	.
(4G/	[4D-\	.	(8.b-/L	4f\	[ >	8.b-/L	8.b-\	tych	et	.
.	.	.	16cc/Jk	.	]]	16cc/Jk	16cc\	.	des	.
=19	=19	=19	=19	=19	=19	=19	=19	=19	=19	=19
2A-/)	4D-\]	.	2a-/)	4en\	>	4a-/	4ryy	sto-	plai-	.
.	2C\	.	.	4e-X\	.	8.a-/L	8.a-\	-dół	-nes	.
.	.	.	.	.	.	16b-/Jk	16b-\	.	dé-	.
([4F/	.	.	(4a-/	[4dn\	]	(<4a-/	4ryy	zwie-	-ser-	.
*	*	*	*	*	*	*v	*v	*	*	*
=20	=20	=20	=20	=20	=20	=20	=20	=20	=20
4F/]	2.BBn\	.	8.g/L	2dnX\]	<	(>8.g/L	-trza-	.	.
.	.	.	16a-/Jk)	.	.	16a-/Jk))	.	.	.
2G/)	.	.	2g/	.	.	4.g/	-łych	-tes	.
.	.	.	.	8d-X\L	.	.	.	.	.
.	.	.	.	8c\J	.	(>[8g/	chło-	ré-	.
*	*	*	*v	*v	*	*	*	*	*
=21	=21	=21	=21	=21	=21	=21	=21	=21
4En/	4CC\	.	(>8B-/L 8g	[[	8g/L]	.	.	.
.	.	.	8d-/J 8b-	.	8b-/J)	.	.	.
!	!	!	!	!	!LO:TX:a:i:t=ten.	!	!	!
4.E/	4.C\	.	4c/ 4a-	mf >	4.cc\	-pię-	-son-	.
.	.	.	4B-/ 4g	.	.	.	.	.
8C/	8C\	.	.	.	8g/	-ca	-ne	.
!!LO:LB:g=original	!	!	!	!	!	!	!	!
=22	=22	=22	=22	=22	=22	=22	=22	=22
*	*	*	*^	*	*^	*	*	*
4r	2FF\ 2C	.	8.g/L	4B-\	.	8.g/L	8.g\	pła-	la	.
.	.	.	16a-/Jk	.	.	16a-/Jk	16a-\	.	chan-	.
4A-/	.	.	4f/	4c\	.	4f/	4ryy	-cze	-son	.
8.G/L	4GG\	.	8en/L	4Bn\	.	4bn\	4ryy	pio-	du	.
!	!	!	!LO:TX:a:i:t=rall.	!	!	!	!	!	!	!
.	.	.	8dn/J	.	.	.	.	.	.	.
16F/Jk	.	.	.	.	]]	.	.	.	.	.
*v	*v	*	*	*	*	*v	*v	*	*	*
*	*	*v	*v	*	*	*	*	*
=23	=23	=23	=23	=23	=23	=23	=23
!	!	!	!	!LO:TX:a:i:t=rall.	!	!	!
8.CC/L 8.En	.	8.c/L 8.g	pp	2g/	-sen-	pâ-	.
(16D-/Jk 16G	.	(16f/Jk 16b-	.	.	.	.	.
2C/) 2E	.	2c/)) 2g	.	.	.	.	.
.	.	.	.	4g/	-ka	-tre	.
*clefG2	*	*	*	*	*	*	*
=24	=24	=24	=24	=24	=24	=24	=24
!	!	!LO:TX:a:i:t=Poco più mosso. (Tempo di mazurka)	!	!LO:TX:a:i:t=Poco più mosso.	!	!	!
(4c/	.	(4cc\	ppp	2.r	.	.	.
!	!	!LO:TX:b:t=(Jakby z oddali)	!	!	!	!	!
4g/	.	4gg\	.	.	.	.	.
4cc\	.	4ccc\	.	.	.	.	.
=25	=25	=25	=25	=25	=25	=25	=25
8bn/L	.	8bbn\L	.	2.r	.	.	.
8g/J	.	8gg\J	.	.	.	.	.
4f/	.	4ff\	.	.	.	.	.
.	.	(16qqee-/LL	.	.	.	.	.
.	.	16qqff/JJ)	.	.	.	.	.
8e-/L	.	8ee-\L	.	.	.	.	.
8d-/J)	.	8dd-\J)	.	.	.	.	.
=26	=26	=26	=26	=26	=26	=26	=26
(4c/	.	(4cc\	<	2.r	.	.	.
4g/	.	4gg\	.	.	.	.	.
4cc\	.	4ccc\	.	.	.	.	.
=27	=27	=27	=27	=27	=27	=27	=27
8bn/L	.	8bbn\L	[	2.r	.	.	.
8g/J	.	8gg\J	>	.	.	.	.
4f/	.	4ff\	.	.	.	.	.
.	.	(16qqee-/LL	.	.	.	.	.
.	.	16qqff/JJ)	.	.	.	.	.
8e-/L	.	8ee-\L	.	.	.	.	.
8d-/J)	.	8dd-\J)	]]	.	.	.	.
!!LO:LB:g=original	!	!	!	!	!	!	!
=28	=28	=28	=28	=28	=28	=28	=28
*^	*	*^	*	*	*	*	*
(4c/	[2.c\	.	(4cc\	4ryy	<	2.r	.	.	.
4g/	.	.	[4gg\	4ryy	.	.	.	.	.
8b-/L	.	.	8ddd-/L	4een\ 4gg]	.	.	.	.	.
8a-/J	.	.	8ccc/J	.	.	.	.	.	.
=29	=29	=29	=29	=29	=29	=29	=29	=29	=29
4g/	2.c\_	.	8bb-/L	4ff\	.	2.r	.	.	.
.	.	.	8gg/J	.	.	.	.	.	.
4dd-/	.	.	4bb-/	4een\	.	.	.	.	.
8cc/L	.	.	4ccc/	4ee-X\	.	.	.	.	.
8b-/J	.	.	.	.	.	.	.	.	.
=30	=30	=30	=30	=30	=30	=30	=30	=30	=30
4a-/	2.c\_ 2.f	.	8aa-/L	4ee-\	.	2.r	.	.	.
.	.	.	8ff/J	.	.	.	.	.	.
4cc/	.	.	4aa-/	4ddn\	.	.	.	.	.
8b-/L	.	.	4bb-/	4dd-X\	.	.	.	.	.
8a-/J	.	.	.	.	[[	.	.	.	.
=31	=31	=31	=31	=31	=31	=31	=31	=31	=31
4e-/ 4g	2.c\]	.	8gg/L	4cc\	.	2.r	.	.	.
.	.	.	8ee-/J	.	.	.	.	.	.
!	!	!	!LO:TX:a:i:t=rit.	!	!	!	!	!	!
4d-/) 4f	.	.	2ff/)	2b-\	.	.	.	.	.
*clefF4	*	*	*	*	*	*	*	*	*
(8F#X~\L	.	.	.	.	.	.	.	.	.
8G\J)	.	.	.	.	.	.	.	.	.
*	*	*	*v	*v	*	*	*	*	*
=32	=32	=32	=32	=32	=32	=32	=32	=32
!LO:TX:i:t=dolce marc.	!	!	!LO:TX:a:i:t=a tempo	!	!	!	!	!
(4c/	[2.C\	.	(8g\ 8een	.	4r	.	.	.
.	.	.	4ee\ 4ccc	.	.	.	.	.
4g/	.	.	.	.	(4g/	A	Joues	.
.	.	.	8qeee-/	.	.	.	.	.
.	.	.	4ff\ 4ddd-	.	.	.	.	.
4cc^^/	.	.	.	.	4cc\)	.	.	.
.	.	.	8ee\ 8ccc	<	.	.	.	.
!!LO:LB:g=original	!	!	!	!	!	!	!	!
=33	=33	=33	=33	=33	=33	=33	=33	=33
8bn/L	2.C\_	.	8ff\L 8ddd-	.	4dd-\	graj	donc	.
8g/J	.	.	8bbn\J 8fff	.	.	.	.	.
4f/	.	.	4aa-\ 4eee-	[ mf	4.a-/	że	ta	.
8e-/L	.	.	8dd-\L 8gg	.	.	.	.	.
8d-/J	.	.	8ff\J 8bb	.	8b-\	mi	chan-	.
=34	=34	=34	=34	=34	=34	=34	=34	=34
(4c/)	2.C\_	.	4en:\) 4cc: 4gg:	.	8g/L	pisz-	-son	.
.	.	.	.	.	8g/J	-cza-	si	.
4G/	.	.	8r	.	4g/	-łecz-	dou-	.
.	.	.	((<4b-\ 4ff 4bb-	f	.	.	.	.
4c/	.	.	.	.	4cc\	-ko,	-ce,	.
.	.	.	8g\) 8een 8gg	.	.	.	.	.
=35	=35	=35	=35	=35	=35	=35	=35	=35
*	*	*	*	*	*^	*	*	*
8Bn/L	2.C\]	.	[8f\L 8dd-	.	8bn/L	8b\	graj	joue	.
8A-/J	.	.	8f\J] 8bn 8aa-	.	8a-/J	8a-\	.	mon	.
!	!	!	!LO:TX:a:i:t=rit.	!	!	!	!	!	!
4G/	.	.	[4.f\ 4.dd-	.	4g/	4ryy	że	cha	.
8F/L	.	.	.	.	8f\L	8a-/L	mi,	lu-	.
8D-/J	.	.	8f\] 8b 8aa-	.	8d-\J	8b-X/J	.	.	.
*v	*v	*	*	*	*	*	*	*	*
=36	=36	=36	=36	=36	=36	=36	=36	=36
2C/)	.	2.en\) 2.cc 2.gg	.	2c\	2g/	graj!	-meau!	.
N(<4C\ 4c	.	.	.	4r	4ryy	.	.	.
*	*	*	*	*v	*v	*	*	*
=37	=37	=37	=37	=37	=37	=37	=37
*^	*	*	*	*	*	*	*
(>4.C/	2.FF\N) 2.C	.	(>4.An/ 4.f	p <	4.f/	U-	Tu	.
8E-/	.	.	8d-/ 8g-X	.	8g-X/	-li-	me	.
4F/	.	.	4c/ 4an	[[	8an/	-ni-	viens	.
.	.	.	.	.	8b-\	-łem	des	.
*v	*v	*	*	*	*	*	*	*
=38	=38	=38	=38	=38	=38	=38	=38
2F\ 2An	.	2e-/ 2cc	mf	8cc\	cię	tris-	.
.	.	.	.	8ee-\	z wierz-	-tes	.
.	.	.	.	4dd-\	-bi-	sau-	.
8G\L 8c	.	8b-/L 8ee-	.	4cc\	-ny,	-les	.
8F\J) 8A	.	8e-/J) 8cc	.	.	.	.	.
!!LO:PB:g=original	!	!	!	!	!	!	!
=39	=39	=39	=39	=39	=39	=39	=39
*^	*	*	*	*	*	*	*
(4.C/	2.FF\ 2.C	.	(>4.An/ 4.f	p <	4.f/	gdzie	où	.
8E-/	.	.	8d-/ 8g-X	.	8g-X/	ten	les	.
4F/	.	.	4c/ 4an	[[	8an/	po-	eaux	.
.	.	.	.	.	8b-\	-tok	pro-	.
*v	*v	*	*	*	*	*	*	*
=40	=40	=40	=40	=40	=40	=40	=40
2F\ 2An	.	2e-/ 2cc	mf	8cc\	sre-	-fon-	.
.	.	.	.	8ee-\	-brno	-des	.
.	.	.	.	4dd-\	si-	pleu-	.
8G-X\L 8c	.	8b-/L 8ee-	.	4cc\	-ny,	-rent	.
8F\J) 8A	.	8e-/J) 8cc	.	.	.	.	.
=41	=41	=41	=41	=41	=41	=41	=41
4BBB-/ 4BB-	.	(>8e-/L 8cc	mf >	8cc\	Gdzie	Dans	.
.	.	8f/J 8dd-	.	8dd-\	ten	les	.
4BB-\ 4F 4B-	.	4d-/ 4b-	.	4b-\	szum-	som-	.
4CC/ 4En	.	8c/L 8a-	.	8a-/L	-ny	-bres	.
.	.	8B-/J 8g-X	]]	8g-X/J	.	.	.
=42	=42	=42	=42	=42	=42	=42	=42
*^	*	*	*	*	*	*	*
2.F/	4DD-\	.	2.A-/) 2.f	p	2f/	gaj;	bois.	.
.	4EE-\	.	.	.	.	.	.	.
.	4FF\	.	.	.	4r	.	.	.
*v	*v	*	*	*	*	*	*	*
=43	=43	=43	=43	=43	=43	=43	=43
*	*	*	*	*^	*	*	*
!	!	!	!	!	!	!	!	!LO:DY:a
2GG-X\ 2B-	.	(>4.d-/ 4.f	ppp	4.d-/	4.ryy	pa-	Où	pp
.	.	8c/L 8e-	<	8c/	8ryy	-na	re-	.
4FF\ 4An	.	8d-/ 8f	.	8d-/	8ryy	pa-	-po-	.
.	.	8e-/J 8g-X	.	8e-/	16e-\	-ni	se	.
.	.	.	.	.	16e-\	.	le	.
*	*	*	*	*v	*v	*	*	*
=44	=44	=44	=44	=44	=44	=44	=44
4GG/ 4An	.	8.d-/L 8.f	.	8.f/	tam	beau	.
.	.	16c/Jk 16e-	.	16e-/	za-	sei-	.
4FF/ 4A-X	.	4d-/ 4f	[	(4f/	-bi-	-gneur	.
!	!	!LO:TX:a:i:t=ten.	!	!	!	!	!
4EE-/ 4G-X	.	4B-/) 4e- 4g-X	.	4g-X/)	ła,	.	.
!!LO:LB:g=original	!	!	!	!	!	!	!
=45	=45	=45	=45	=45	=45	=45	=45
2GG-X\ 2B-	.	(>4F/ 4d- 4f	<	4d-/	Zie-	Que	.
.	.	4E-/ 4c 4e-	.	4c/	-le-	tu-	.
4FF\ 4An	.	8F/L 8d- 8f	.	8d-/	-ni	-a	.
.	.	8G-X/J 8e- 8g-X	[[	8g-X/	się	la	.
=46	=46	=46	=46	=46	=46	=46	=46
4GG/ 4An	.	8.F/L 8.d- 8.f	.	8.an/	hej	da-	.
.	.	16E-/Jk 16c 16e-	.	16a/	mo-	-me	.
4FF/ 4A-X	.	4F/ 4d- 4f	.	4a-X/	-gi-	blon-	.
4EE-/ 4G-X	.	4B-/) 4e- 4g-X	.	4g-X/	-ła,	-de	.
=47	=47	=47	=47	=47	=47	=47	=47
*^	*	*	*	*	*	*	*
!	!	!	!LO:TX:b:i:t=riten.	!	!	!	!	!
.	8qDD-/	.	.	.	.	.	.	.
*	*	*	*^	*	*	*	*	*
(<2F/	2.D-\	.	(8a-/L	2A-\ 2f	.	4f/	zie-	cel-	.
.	.	.	8gn/J	.	.	.	.	.	.
.	.	.	4a-/	.	.	4a-/	-le-	-le	.
8A-/L	.	.	4b-/)	4B-\ 4f	.	8b-\	-ni	qu'il	.
8Gn/J)	.	.	.	.	.	8b-\	się	ai-	.
=48	=48	=48	=48	=48	=48	=48	=48	=48	=48
!LO:TX:b:i:t=dolce marc.	!	!	!	!	!	!	!	!	!
(4En/	[2.C\	.	2.g/ 2.cc	2c\	f	2cc\	hej!	-ma	.
4G/	.	.	.	.	.	.	.	.	.
4c/	.	.	.	4r	.	4r	.	.	.
*	*	*	*v	*v	*	*	*	*	*
=49	=49	=49	=49	=49	=49	=49	=49	=49
*	*	*	*	*^	*	*	*	*
!	!	!	!LO:TX:a:i:t=ten.	!	!LO:HP:a	!	!	!	!
8Bn/L	2.C\]	.	2.d-^^/ 2.g	> ]]	>	2.r	.	.	.
8G/J	.	.	.	.	.	.	.	.	.
4F/	.	.	.	.	.	.	.	.	.
8E-/L	.	.	.	.	.	.	.	.	.
8D-/J)	.	.	.	.	.	.	.	.	.
=50	=50	=50	=50	=50	=50	=50	=50	=50	=50
*	*^	*	*	*	*	*	*	*	*
!	!	!	!	!LO:TX:a:i:t=ten.	!LO:HP:t=dim.	!	!	!	!	!
2.C/	(4CC\	2.CC\	.	2.G^^/ 2.c	>	.	2.r	.	.	.
!	!	!	!	!	!LO:DY:b	!	!	!	!	!
.	4GG\	.	.	.	pp	.	.	.	.	.
.	4C\	.	.	.	.	.	.	.	.	.
*v	*v	*v	*	*	*	*	*	*	*	*
!!LO:LB:g=original	!	!	!	!	!	!	!	!
=51	=51	=51	=51	=51	=51	=51	=51	=51
!	!	!LO:TX:b:i:t=Ral_len_tan_do	!	!	!	!	!	!
!	!	!LO:TX:b:Bi:t=Ral_len_tan_do:problem: with line extensions	!	!	!	!	!	!
!	!	!LO:TX:i:b:t=ten.	!	!	!	!	!	!
8BBn\L	.	(2.D-<^^/ [2.G<	.	.	2.r	.	.	.
8GG\J	.	.	.	.	.	.	.	.
4FF\	.	.	.	.	.	.	.	.
8EE-\L	.	.	.	.	.	.	.	.
8DD-\J	.	.	.	.	.	.	.	.
=52	=52	=52	=52	=52	=52	=52	=52	=52
*	*	*^	*	*	*	*	*	*
2CC\)	.	[2.C</) 2.G<_	[2.GG<\	.	.	2.r	.	.	.
[4CC\	.	.	.	.	]]	.	.	.	.
*	*	*	*	*v	*v	*	*	*	*
=53	=53	=53	=53	=53	=53	=53	=53	=53
4CC\]	.	2.C</] 2.G<]	2.GG<\]	.	2.r	.	.	.
(<2CC\	.	.	.	.	.	.	.	.
*	*	*v	*v	*	*	*	*	*
=54||	=54||	=54||	=54||	=54||	=54||	=54||	=54||
*k[b-e-a-d-g-]	*	*k[b-e-a-d-g-]	*	*k[b-e-a-d-g-]	*	*	*
!	!	!LO:TX:a:i:t=Poco meno e rubato	!	!LO:TX:a:i:t=Poco meno	!	!	!
4.GG-~/	.	2.r	ppp	2.r	.	.	.
8FF/L	.	.	.	.	.	.	.
8EE-/	.	.	.	.	.	.	.
8DD-/J	.	.	.	.	.	.	.
=55	=55	=55	=55	=55	=55	=55	=55
*	*	*^	*	*	*	*	*
!	!	!	!	!LO:DY:a	!	!	!	!
2CC/	.	(2B-~/ 2e-	2.G-\	pp <	4.e-/	A	La	.
.	.	.	.	.	8e-/	cier-	sau-	.
!	!	!LO:TX:a:i:t=portando	!	!	!	!	!	!
4CC-X/)	.	4An/) 4f	.	.	8f/	-ni-	-va-	.
.	.	.	.	[[	8f/	-ste	-ge	.
*	*	*v	*v	*	*	*	*	*
=56	=56	=56	=56	=56	=56	=56	=56
(4.GG-~>/	.	2.r	.	2.r	.	.	.
8FF/L	.	.	.	.	.	.	.
8EE-/	.	.	.	.	.	.	.
8DD-/J)	.	.	.	.	.	.	.
!!LO:LB:g=original	!	!	!	!	!	!	!
=57	=57	=57	=57	=57	=57	=57	=57
*	*	*^	*	*	*	*	*
(>2CCn/	.	(2B-/ 2e-	2.E-\	<	4.e-/	krze-	au-	.
.	.	.	.	.	8e-/	-wie	-bé-	.
4CC-X/	.	4An/ 4f	.	.	8f/	gło-	-pi-	.
.	.	.	.	.	8f/	-gu	-ne	.
*	*	*v	*v	*	*	*	*	*
=58	=58	=58	=58	=58	=58	=58	=58
4.BBB-/ 4.BB-	.	2.G-/) 2.B- 2.e- 2.g-	[[	4.g-/	kwiat	sème	.
8AAA-/L 8AA-	.	.	.	8g-/	swój	au	.
8GGG-/ 8GG-	.	.	.	8g-/	sy-	vent	.
8FFF/J 8FF	.	.	.	8g-/	-pie	ses	.
=59	=59	=59	=59	=59	=59	=59	=59
*	*	*	*	*^	*	*	*
2EEE-/) 2EE-	.	(>2G-/ [>2c-X [2e- 2g-	<	4.g-/	4.ryy	po	blan-	.
.	.	.	.	8g-/	16g-\	roz-	ches	.
.	.	.	.	.	16g-\	.	pé	.
(>[4CC-X/ [4C-X	.	[4A-/ 4c-] 4e-_ [4a-	[ mf >	8a-/	4ryy	-ło-	ta-	.
.	.	.	.	8a-/	.	-gu,	-les	.
*	*	*	*	*v	*v	*	*	*
=60	=60	=60	=60	=60	=60	=60	=60
4.CC-/] 4.C-]	.	2.A-/]) 2.e-] 2.a-]	]	2.r	.	.	.
8BBB-/L 8BB-	.	.	.	.	.	.	.
8AAA-/ 8AA-	.	.	.	.	.	.	.
8GGG-/J 8GG-	.	.	.	.	.	.	.
=61	=61	=61	=61	=61	=61	=61	=61
*	*	*^	*	*	*	*	*
2FFF/ 2FF	.	(2e-/ 2a-	[2.A-\	pp <	4a-/	A	Dans	.
.	.	.	.	.	4a-/	szept	le	.
4FFF-X/) 4FF-X	.	4dn/ 4b-	.	.	8b-\	i-	noir	.
.	.	.	.	[	8b-\	-dzie	tail-	.
*	*	*v	*v	*	*	*	*	*
=62	=62	=62	=62	=62	=62	=62	=62
(>4.CC-X/ 4.C-X	.	4A-/]) 4e- 4a-	>	2a-/	z kniej;	-lis,	.
.	.	2r	]	.	.	.	.
8BBB-/L 8BB-	.	.	.	.	.	.	.
8AAA-/ 8AA-	.	.	.	8r	.	.	.
8GGG-/J 8GG-	.	.	.	8a-/	a	et	.
!!LO:PB:g=original	!	!	!	!	!	!	!
=63	=63	=63	=63	=63	=63	=63	=63
*	*	*^	*	*^	*	*	*
4.FFF/ 4.FF	.	(4.e-/ 4.a-	2.A-\	<	4.a-/	4.ryy	du-	l'â-	.
4.FFF-X/ 4.FF-X	.	4.dn/ 4.b-	.	.	4.b-/	4b-\	-sza	-me	.
.	.	.	.	[[	.	8b-\	.	é	.
*	*	*v	*v	*	*	*	*	*	*
*	*	*	*	*v	*v	*	*	*
=64	=64	=64	=64	=64	=64	=64	=64
4.EEE-/ 4.EE-	.	2c-X/) 2e- 2a- 2cc-X	mf	2cc-X\	słu-	cou-	.
!LO:TX:b:i:t=loco	!	!	!	!	!	!	!
8DD-/L 8D-	.	.	.	.	.	.	.
8CC-X/ 8C-X	.	(>[4G-/ [>4e- [4g-	.	4g-/	-cha	-te	.
8BBB-/J 8BB-	.	.	.	.	.	.	.
=65	=65	=65	=65	=65	=65	=65	=65
2.CC-X/ 2.C-X	.	4G-/] 4e-] 4g-]	.	4r	.	.	.
.	.	4G-/ 4e- 4g-	.	4r	.	.	.
.	.	[4A-/ 4e- 4a-	.	4a-/	I	E-	.
=66	=66	=66	=66	=66	=66	=66	=66
[2CC-X/ [2C-X	.	4.A-~>/_ [>4.dn 4.g-	.	4.g-/	słu-	-cou-	.
.	.	4A-/]) 4d] 4f	.	4f/	-cha,	-te	.
8CC-/L]) 8C-]	.	.	.	.	.	.	.
(>[8CC-/J [8C-	.	N(>[8A-/ 8e- 8a-	.	8a-/	a	s'é-	.
=67	=67	=67	=67	=67	=67	=67	=67
!	!	!LO:TX:a:i:t=rall.	!	!	!	!	!
2.CC-/_ 2.C-_	.	2.A-/_ 2.dn (>2.g-	>	4g-/	dzień	-tein-	.
.	.	.	.	4.g-/	jej	-dre	.
.	.	.	.	8g-/	przy-	sa	.
=68	=68	=68	=68	=68	=68	=68	=68
*	*	*^	*	*	*	*	*
2.CC-;/]) 2.C-]	.	[<2d-/) [2f)	2.A-\]	.	2f/	-ga-	vi-	.
.	.	8d-/L] 8f]	.	] ppp	8f/	-sa...	-e	.
.	.	8e-;/JN) 8a-	.	.	8r;	.	.	.
*	*	*v	*v	*	*	*	*	*
=69	=69	=69	=69	=69	=69	=69	=69
*	*	*	*^	*	*	*	*
!	!	!LO:TX:a:i:t=piu mosso	!	!LO:HP:t=cres-cen-do	!LO:TX:a:i:t=piu mosso	!	!	!
!	!	!LO:TX:b:t=cres-cen-do:dur=q6e2h:ext=cd:problem:text with extention lines	!	!	!	!	!	!
N(4.CC-X/	.	2.r	<	<	2.r	.	.	.
8BBB-/L	.	.	.	.	.	.	.	.
8AAA-/	.	.	.	.	.	.	.	.
8GGG-/J	.	.	.	.	.	.	.	.
*	*	*clefF4	*	*	*	*	*	*
!!LO:LB:g=original	!	!	!	!	!	!	!	!
=70	=70	=70	=70	=70	=70	=70	=70	=70
*^	*	*	*	*	*	*	*	*
!	!LO:TX:a:i:t=m.d.	!	!LO:N:vis=4	!	!	!	!	!	!
(4.AA-</	2.EEE-\N) 2.CC-X	.	4.r	.	.	2.r	.	.	.
!LO:TX:a:i:t=m.s.	!	!	!LO:N:vis=4	!	!	!	!	!	!
8GG-/L	.	.	8r	.	.	.	.	.	.
8FF/	.	.	([4A-\	.	.	.	.	.	.
8EE-/J)	.	.	.	.	.	.	.	.	.
*v	*v	*	*	*	*	*	*	*	*
=71	=71	=71	=71	=71	=71	=71	=71	=71
*	*	*^	*	*	*	*	*	*
*	*	*	*^	*	*	*	*	*	*
([2DD-/ [2D-	.	4A-/]	N[>8A-\L	4ryy	.	.	2.r	.	.	.
.	.	.	8G-\J	.	.	.	.	.	.	.
!	!	!	!	!	!LO:HP:t=crescendo	!	!	!	!	!
.	.	4A-/N]	8F\L	2F/	[ <	.	.	.	.	.
.	.	.	8E-\J	.	.	.	.	.	.	.
8DD-/L] 8D-]	.	4An/	4D-\ 4F	.	.	.	.	.	.	.
8CC/J) 8C	.	.	.	.	.	.	.	.	.	.
*	*	*	*	*	*v	*v	*	*	*	*
=72	=72	=72	=72	=72	=72	=72	=72	=72	=72
!	!	!	!	!	!	!LO:TX:a:i:t=Poco piu	!	!	!
(2BBB-/ 2BB-	.	2D-\) 2F 2d-	(4A-/	4rAAA	mf <	4r	.	.	.
.	.	.	2B-/)	4rAAA	.	4r	.	.	.
*	*	*clefG2	*	*	*	*	*	*	*
4AAA-/) 4AA-	.	(4f\	.	4ryy	[[	4f/	A	Les	.
*	*	*	*v	*v	*	*	*	*	*
=73	=73	=73	=73	=73	=73	=73	=73	=73
*^	*	*	*	*	*	*	*	*
*Xtuplet	*	*	*	*	*	*	*	*	*
!	!	!	!	!	!	!	!	!	!LO:DY:a
!	!	!	!	!	!	!LO:TX:a:t=szeroko i rozlewnie	!	!	!LO:HP:a
12r	2.GGG-\ 2.GG-	.	[2.f/ [2.b-	12f\L	.	2b-\	o-	ai-	p <
(<12AA-/L 12F	.	.	.	12B-\	mf	.	.	.	.
!	!	!	!LO:TX:b:i:t=dolce	!	!	!	!	!	!
12GG-/J 12E-	.	.	.	12e-\J	.	.	.	.	.
12AA-/L 12F	.	.	.	12B-\L	.	.	.	.	.
12GG-/ 12E-	.	.	.	12e-\	.	.	.	.	.
12GG-/J 12F	.	.	.	12B-\J	.	.	.	.	.
12GG-/L 12E-	.	.	.	12e-\L	<	4e-/	-na	-les	.
12AA-/ 12F	.	.	.	12B-\	.	.	.	.	.
12GG-/J 12E-	.	.	.	12e-\J	.	.	.	.	.
*v	*v	*	*	*	*	*	*	*	*
=74	=74	=74	=74	=74	=74	=74	=74	=74
12AA-/L 12F	.	4f/_ 4b-_	12B-\L	.	4f/	śla-	blan-	.
12GG-/ 12E-	.	.	12e-\	.	.	.	.	.
12AA-/J 12F	.	.	12B-\J	.	.	.	.	.
12GG-/L 12E-	.	4f/] 4b-]	12e-\L	.	4e-/	-dem	-ches	.
12FF/ 12D-	.	.	12A-\	.	.	.	.	.
12GG-/J 12E-	.	.	12e-\J	.	.	.	.	.
12FF/L) 12F	.	4A-/) 4d- 4a-	4ryy	.	4a-/	tę-	la	.
(12DD-/ 12D-	.	.	.	.	.	.	.	.
12CC/J 12C	.	.	.	.	.	.	.	.
!!LO:LB:g=original	!	!	!	!	!	!	!	!
=75	=75	=75	=75	=75	=75	=75	=75	=75
*^	*	*	*	*	*	*	*	*
12r	2BBB-\) 2BB-	.	(2a-/ 2dd-	12d-\L	.	2dd-\	-skni-	por-	.
(12D-/L 12B-	.	.	.	12g-\	.	.	.	.	.
12BB-/J 12A-	.	.	.	12d-\J	.	.	.	.	.
12D-/L 12B-	.	.	.	12g-\L	.	.	.	.	.
12BB-/ 12A-	.	.	.	12d-\	.	.	.	.	.
12D-/J) 12B-	.	.	.	12g-\J	.	.	.	.	.
12r	4AAAn\ 4AAn	.	4cc/	12c\L	.	4cc\	-cy	-tent	[[
(<12F/L 12d-	.	.	.	12g-\	.	.	.	.	.
12E-/J)	.	.	.	12c\J	.	.	.	.	.
=76	=76	=76	=76	=76	=76	=76	=76	=76	=76
!	!	!	!	!	!	!	!	!	!LO:DY:a
!	!	!	!	!	!	!	!	!	!LO:HP:a
12r	2DD-\ 2D-	.	2ff/	12f\L	.	4ff\	pły-	vers	f <
(<12F/L 12e-	.	.	.	12cc\	.	.	.	.	.
12D-/J 12d-	.	.	.	12f\J	.	.	.	.	.
12F/L 12e-	.	.	.	12cc\L	.	4.ff\	-nie	le	.
12D-/ 12d-	.	.	.	12f\	.	.	.	.	.
12F/J) 12e-	.	.	.	12cc\J	.	.	.	.	.
12D-\L 12d-	4ryy	.	4ff/)	12f\L 12b-	.	.	.	.	.
(12CC\ 12C	.	.	.	12d-\	.	.	.	.	.
.	.	.	.	.	.	8ff\	roz-	pa-	[[
12BBB-\J) 12BB-	.	.	.	12d-\J 12dd-	.	.	.	.	.
*v	*v	*	*	*	*	*	*	*	*
=77	=77	=77	=77	=77	=77	=77	=77	=77
(12AAA-^/L 12AA-	.	(4f/ [4ff	12dd-\L	f <	[4cc\	-lew-	-ys	.
12F/ 12c	.	.	12cc\	.	.	.	.	.
12E-/J 12B-	.	.	12dd-\J	.	.	.	.	.
*	*	*	*tuplet	*	*	*	*	*
!	!	!	!LO:TUP:a:problem:klamra łukowa	!	!	!	!	!
12F/L 12c	.	12f/ 12ff]	12cc\L	.	8cc\]	.	.	.
12GGGn^/ 12GGn	.	6gn/ 6ggn	12dd-\	.	.	.	.	.
.	.	.	.	.	8b-\	-ną	du	.
12C/J 12c	.	.	12cc\J	.	.	.	.	.
*	*	*	*Xtuplet	*	*	*	*	*
12FFF^/L) 12FF	.	8a-/L 8aa-	12dd-\L	.	8a-/	fa-	rêve	.
[>12A-/ 12f	.	.	12cc\	.	.	.	.	.
.	.	8cc/J 8ccc	.	.	8a-/	-lą	et	.
12F/J 12A-] 12e-	.	.	12gg\J	.	.	.	.	.
=78	=78	=78	=78	=78	=78	=78	=78	=78
*^	*	*	*	*	*	*	*	*
(12c/L	2.BB-\ 2.F	.	4cc/ 4ccc	12ff\L	.	8.cc\	księ-	de	.
12B-/	.	.	.	12dd-\	.	.	.	.	.
!	!	!	!	!	!LO:HP:t=dim.	!	!	!	!
12d-/J	.	.	.	12ff\J	[ >	.	.	.	.
.	.	.	.	.	.	16b-\	-ży-	la	.
12B-/L 12f	.	.	4b-/ 4bb-	12dd-\L	.	4b-\	-co-	lu-	.
12F/ 12d-	.	.	.	12ff\	>	.	.	.	.
12B-/J 12f	.	.	.	12dd-\J	.	.	.	.	.
12F/L 12d-	.	.	4a-/) 4aa-	12ff\L	.	4a-/	-wą,	-ne	.
12B-/ 12f	.	.	.	12dd-\	.	.	.	.	.
12F/J) 12d-	.	.	.	12ff\J	]]	.	.	.	.
!!LO:LB:g=original	!	!	!	!	!	!	!	!	!
=79	=79	=79	=79	=79	=79	=79	=79	=79	=79
*	*^	*	*	*	*	*	*	*	*
*ped	*	*	*	*	*	*	*	*	*	*
!LO:TX:b:t=(dolce marc.)	!	!	!	!	!	!	!	!	!	!
.	.	(8qBBB-\ 8qBB-	.	.	.	.	.	.	.	.
(4F/	[2.F\	2.BBB-\) 2.BB-	.	(2.aa-~/	12a-\L	p <	4r	.	.	.
.	.	.	.	.	12b-\ 12dd-	.	.	.	.	.
.	.	.	.	.	12a-\J	.	.	.	.	.
4B-/	.	.	.	.	12b-\L 12dd-	.	4r	.	.	.
.	.	.	.	.	12a-\	.	.	.	.	.
.	.	.	.	.	12b-\J 12dd-	.	.	.	.	.
4f/	.	.	.	.	12a-\L	.	4a-/	ro-	Vers	.
.	.	.	.	.	12b-\ 12dd-	.	.	.	.	.
.	.	.	.	.	12a-\J	[	.	.	.	.
*	*v	*v	*	*	*	*	*	*	*	*
=80	=80	=80	=80	=80	=80	=80	=80	=80	=80
*	*	*	*	*	*	*^	*	*	*
*	*	*	*	*	*	*	*cue	*	*	*
8en/L	2.F\]	.	2.ggn/)	12gn\L	>	8gn\	8dd-/	-sa-	les	.
.	.	.	.	12b-\ 12dd-	.	.	.	.	.	.
8c/J	.	.	.	.	.	8g\	8dd-/	-mi	prai-	.
.	.	.	.	12g\J	.	.	.	.	.	.
4B-/	.	.	.	12b-\L 12dd-	.	4g\	4dd-/	pły-	-ri-	.
.	.	.	.	12g\	.	.	.	.	.	.
.	.	.	.	12b-\J 12dd-	.	.	.	.	.	.
8A-/L	.	.	.	12g\L	.	8g\	8dd-/	-nie	-es	.
.	.	.	.	12b-\ 12dd-	.	.	.	.	.	.
8Gn/J)	.	.	.	.	.	8g\	8dd-/	lśnią-	hu-	.
.	.	.	.	12g\J	]]	.	.	.	.	.
*	*	*	*	*	*	*	*Xcue	*	*	*
*	*	*	*	*	*	*v	*v	*	*	*
=81	=81	=81	=81	=81	=81	=81	=81	=81	=81
(4F/	2.BB-\ [2.F	.	(2.aa-~/	12a-\L	<	4a-/	-ce-	-mi-	.
.	.	.	.	12b-\ 12dd-	.	.	.	.	.
.	.	.	.	12a-\J	.	.	.	.	.
4B-/	.	.	.	12b-\L 12dd-	.	4.a-/	-mi	-des	.
.	.	.	.	12a-\	.	.	.	.	.
.	.	.	.	12b-\J 12dd-	.	.	.	.	.
4f/	.	.	.	12a-\L	.	.	.	.	.
.	.	.	.	12b-\ 12dd-	.	.	.	.	.
.	.	.	.	.	.	8a-/	na	et	.
.	.	.	.	12a-\J	[[	.	.	.	.
=82	=82	=82	=82	=82	=82	=82	=82	=82	=82
8en/L	2.F\]	.	2.gg-X/)	12g-X\L	>	4g-X/	łą-	fraî-	.
.	.	.	.	12b-\ 12dd-	.	.	.	.	.
8c/J	.	.	.	.	.	.	.	.	.
.	.	.	.	12g-\J	.	.	.	.	.
4B-/	.	.	.	12b-\L 12dd-	.	8g-/	-kach	-ches	.
.	.	.	.	12g-\	.	.	.	.	.
.	.	.	.	.	.	8g-/	i	et	.
.	.	.	.	12b-\J 12dd-	.	.	.	.	.
8A-/L	.	.	.	12g-\L	.	8g-/	wierz-	vers	.
.	.	.	.	12b-\ 12dd-	.	.	.	.	.
8G-X/J)	.	.	.	.	.	8g-/	-choł-	les	.
.	.	.	.	12g-\J	]]	.	.	.	.
*v	*v	*	*	*	*	*	*	*	*
!!LO:PB:g=original	!	!	!	!	!	!	!	!
=83	=83	=83	=83	=83	=83	=83	=83	=83
12BBB-~/L 12BB-	.	(4ff/	12f\L	<	4f/	-ka-	ar-	.
(12F/ 12d-	.	.	12g-\ 12b-	.	.	.	.	.
12B-/J	.	.	12f\J	.	.	.	.	.
12F\L 12d-	.	4b-/	12g-\L	.	4b-\	-mi	-bres	.
12B-\	.	.	12f\	.	.	.	.	.
12F\J 12d-	.	.	12g-\J	.	.	.	.	.
12B-\L	.	4cc/	12f\L	.	8cc\	u-	re-	.
12F\ 12d-	.	.	12g-\ 12b-	.	.	.	.	.
.	.	.	.	.	8dd-\	-ko-	-cueil-	.
12B-\J)	.	.	[12f\J	[[	.	.	.	.
=84	=84	=84	=84	=84	=84	=84	=84	=84
*	*	*	*	*	*^	*	*	*
*	*	*	*	*^	*	*	*	*	*
!	!	!	!	!LO:DY:b	!LO:HP:b=2	!	!	!	!	!
(8CC/L	.	[2dd-/	12f\L]	mf	<	4.dd-\	4.ryy	-jo-	-lis	.
.	.	.	12g-\ 12b-	.	.	.	.	.	.	.
8BB-/J	.	.	.	.	.	.	.	.	.	.
.	.	.	12f\J	.	.	.	.	.	.	.
8C\L	.	.	12g-\L 12b-	.	.	.	.	.	.	.
.	.	.	12f\	.	.	.	.	.	.	.
8B-\J	.	.	.	.	.	8dd-\	8ryy	-nych	et	.
.	.	.	12g-\J 12b-	.	.	.	.	.	.	.
8d-\L	.	8dd-/L]	12f\L	.	.	8dd-/L	8dd-\	drzew,	cal-	.
.	.	.	12g-\ 12b-	.	.	.	.	.	.	.
8c\J)	.	8cc/J)	.	.	.	8cc/J	8cc\	.	-mes	.
.	.	.	12en\J	.	[[	.	.	.	.	.
*	*	*	*	*v	*v	*	*	*	*	*
*	*	*v	*v	*	*	*	*	*	*
*	*	*	*	*v	*v	*	*	*
=85	=85	=85	=85	=85	=85	=85	=85
(>2DD-/ 2D-	.	(>12c/L 12en 12cc	>	4cc\	I	Et	.
.	.	12c/ 12e 12cc	.	.	.	.	.
.	.	12c/J 12e 12cc	.	.	.	.	.
.	.	12B-/L 12f 12b-	.	4.b-\	grzbie-	vers	.
.	.	12B-/ 12f 12b-	.	.	.	.	.
.	.	12B-/J 12f 12b-	.	.	.	.	.
4CC/) 4C	.	12B-/L 12f 12b-	.	.	.	.	.
.	.	12B-/ 12f 12b-	.	.	.	.	.
.	.	.	.	8cc\	-tem	les	.
.	.	12c/J) 12e 12cc	]]	.	.	.	.
*	*	*clefF4	*	*	*	*	*
=86	=86	=86	=86	=86	=86	=86	=86
(>2DD-/ 2D-	.	(12En\L 12c 12en	.	8cc\	bia-	monts	.
.	.	12E\ 12c 12e	pp	.	.	.	.
.	.	.	.	8cc\	-łych	nei-	.
.	.	12E\J 12c 12e	.	.	.	.	.
!	!	!LO:TX:b:i:t=poco rit.	!	!	!	!	!
.	.	12F\L 12B- 12f	.	4b-\	gór	-geux	.
.	.	12F\ 12B- 12f	.	.	.	.	.
.	.	12F\J 12B- 12f	.	.	.	.	.
[4CC/) [4C	.	12F\L 12B- 12f	.	4r	.	.	.
.	.	12F\ 12B- 12f	.	.	.	.	.
.	.	12E\J) 12c 12e	.	.	.	.	.
!!LO:LB:g=original	!	!	!	!	!	!	!
=87	=87	=87	=87	=87	=87	=87	=87
!	!	!LO:TX:a:i:t=a tempo	!	!LO:TX:a:i:t=a tempo	!	!	!
4.CC/] 4.C]	.	2E-X\ 2B- 2e-X	.	4r	.	.	.
.	.	.	.	4r	.	.	.
8BBB-/L 8BB-	.	.	.	.	.	.	.
!	!	!	!LO:DY:a	!	!	!	!
8AAA-/ 8AA-	.	4r	mp	4b-\	ku	vers	.
[8GGG-/J [8GG-	.	.	.	.	.	.	.
*	*	*clefG2	*	*	*	*	*
=88	=88	=88	=88	=88	=88	=88	=88
*^	*	*	*	*	*	*	*
*tremolo	*	*	*tremolo	*	*	*	*	*
!LO:TX:b:i:t=loco	!	!	!LO:TX:t=P:problem: cyfra 3 nad tremolo	!	!	!	!	!
!LO:TX:t=P:problem: cyfra 3 nad tremolo	!	!	!	!	!	!	!	!
(8BB-/L 8G-	2.GGG-\] 2.GG-]	.	(>8B-/L 8e- 8b-	.	8b-\	o-	ces	.
8BB-/J 8G-	.	.	8B-/J 8e- 8b-	.	8b-\	-nym	beaux	.
!LO:TX:t=P:problem: cyfra 3 nad tremolo	!	!	!LO:TX:t=P:problem: cyfra 3 nad tremolo	!	!	!	!	!
8C-X/L 8F	.	.	8An/L 8e- 8an	.	4an/	dniom	jours	.
8C-X/J 8F	.	.	8An/J 8e- 8an	.	.	.	.	.
*Xtremolo	*	*	*Xtremolo	*	*	*	*	*
12C-/L 12F	.	.	12A/L 12e- 12a	.	8a/	za-	ou-	.
12C-/ 12F	.	.	12A/ 12e- 12a	.	.	.	.	.
.	.	.	.	.	8b-\	-po-	-bli-	.
12BB-/J) 12G-	.	.	12B-/J) 12e- 12b-	.	.	.	.	.
*v	*v	*	*	*	*	*	*	*
=89	=89	=89	=89	=89	=89	=89	=89
*8ba	*	*	*	*	*	*	*
!	!	!	!LO:HP:t=poco a poco crescendo et accelerando	!	!	!	!
(4.GGG-/ 4.GG-	.	2.r	<	(<4b-\	-mnia-	-és,	.
.	.	.	.	4e-/)	-nym,	.	.
8FFF/L 8FF	.	.	.	.	.	.	.
8EEE-/ 8EE-	.	.	.	8r	.	.	.
8DDD-/J 8DD-	.	.	.	8ee-\	gdy	.	.
=90	=90	=90	=90	=90	=90	=90	=90
*^	*	*	*	*^	*	*	*
*ped	*	*	*tremolo	*	*	*	*	*	*
!LO:TX:b:i:t=loco	!	!	!LO:TX:t=P:problem: cyfra 3 nad tremolo	!	!	!	!	!	!
12r	2.CCC\) 2.CC	.	8e-/L 8b- 8ee-	.	4ee-/	8ee-\	mi-	Où	.
*X8ba	*	*	*	*	*	*	*	*	*
(12E-/L 12G-	.	.	.	.	.	.	.	.	.
.	.	.	8e-/J 8b- 8ee-	.	.	8ee-\	.	l'a	.
12E-/J 12G-	.	.	.	.	.	.	.	.	.
!	!	!	!LO:TX:t=P:problem: cyfra 3 nad tremolo	!	!	!	!	!	!
*tremolo	*	*	*	*	*	*	*	*	*
!LO:TX:t=P:problem: cyfra 3 nad tremolo	!	!	!	!	!	!	!	!	!
8G-/L 8An	.	.	8dn/L 8g- 8ddn	.	4..ddn\	4.ryy	-łość	mour	.
8G-/J 8An	.	.	8dn/J 8g- 8ddn	.	.	.	.	.	.
*Xtremolo	*	*	*Xtremolo	*	*	*	*	*	*
12G-/L 12A	.	.	12d/L 12g- 12dd	.	.	.	.	.	.
12E-/ 12G-	.	.	12e-/ 12b- 12ee-	.	.	.	.	.	.
.	.	.	.	.	.	8ryy	.	.	.
12E-/J) 12G-	.	.	12e-/J 12b- 12ee-	.	.	.	.	.	.
.	.	.	.	.	16ee-\	.	i	le	.
*v	*v	*	*	*	*v	*v	*	*	*
=91	=91	=91	=91	=91	=91	=91	=91
*8ba	*	*	*	*	*	*	*
(4.GGG-~>/ 4.GG-	.	2.r	.	4ee-\	spo-	cal-	.
.	.	.	.	4g-/	-kój	-me	.
8FFF/L 8FF	.	.	.	.	.	.	.
8EEE-/ 8EE-	.	.	.	8r	.	.	.
8DDD-/J 8DD-	.	.	.	8e-/	nie	ne	.
!!LO:LB:g=original	!	!	!	!	!	!	!
=92	=92	=92	=92	=92	=92	=92	=92
*^	*	*	*	*	*	*	*
*	*	*	*tremolo	*	*	*	*	*
!	!	!	!LO:TX:t=P:problem: cyfra 3 nad tremolo	!	!	!	!	!
12r	2.CCC-X\) 2.CC-X	.	8e-/L 8b-- 8ee-	.	8ee-\	by-	con-	.
*X8ba	*	*	*	*	*	*	*	*
!LO:TX:b:i:t=loco	!	!	!	!	!	!	!	!
(12E-/L 12G-	.	.	.	.	.	.	.	.
.	.	.	8e-/J 8b-- 8ee-	.	8ee-\	-ły	-nais-	.
12E-/J 12G-	.	.	.	.	.	.	.	.
*tremolo	*	*	*	*	*	*	*	*
!LO:TX:t=P:problem: cyfra 3 nad tremolo	!	!	!LO:TX:t=P:problem: cyfra 3 nad tremolo	!	!	!	!	!
8G-/L 8B--	.	.	8dn/L 8g- 8ddn	.	4ddn\	o-	-saient	.
8G-/J 8B--	.	.	8dn/J 8g- 8ddn	.	.	.	.	.
*Xtremolo	*	*	*Xtremolo	*	*	*	*	*
12G-/L 12B--	.	.	12d/L 12g- 12dd	.	8dd\	-gniem	pas	.
12E-/ 12G-	.	.	12e-/ 12b-- 12ee-	.	.	.	.	.
.	.	.	.	.	8ee-\	tra-	l'an-	.
12E-/J) 12G-	.	.	12e-/J 12b-- 12ee-	.	.	.	.	.
*v	*v	*	*	*	*	*	*	*
=93	=93	=93	=93	=93	=93	=93	=93
*8ba	*	*	*	*	*	*	*
*	*	*	*	*^	*	*	*
(<4.GGG-^>/ 4.GG-	.	(>4.G-^>/	.	4ee-\	4ryy	-wią-	-gois-	.
!	!	!	!	!	!LO:TX:t=P:problem: 4r skreślone ołówkiem	!	!	!
.	.	.	.	4e-/	4r	-cym	-se	.
8FFF\ 8FF	.	8F/	.	.	.	.	.	.
*	*	*	*	*	*Xtuplet	*	*	*
12EEE-\L 12EE-	.	12e-</L	.	12an/	12ryy	A-	dé-	.
12DDD-\ 12DD-	.	12d-</	.	12a/	6a\	-ni	-vo-	.
12CCC-X\J 12CC-X	.	12c-X</J)	.	12a/	.	ka-	.	.
*	*	*	*	*v	*v	*	*	*
=94	=94	=94	=94	=94	=94	=94	=94
(>12BBBB-\) 12BBB-	.	(12B-</	.	2ee-\	-mien-	-ran-	.
*X8ba	*	*	*	*	*	*	*
(>12G-\L) 12B- 12e- 12g-	.	(12b-^\L) 12ee- 12bb-	.	.	.	.	.
12G-\J 12B- 12e- 12g-	.	12b-\J 12ee- 12bb-	.	.	.	.	.
12G-\L 12e- 12g-	.	12an^\L 12ee- 12aan	.	.	.	.	.
12d-^\ 12e- 12g-	.	12a\ 12ee- 12aa	.	.	.	.	.
12c-X\J 12e- 12g-	.	12a\J 12ee- 12aa	.	.	.	.	.
12c-\L 12e- 12g-	.	12a\L 12ee- 12aa	.	4ee-\	-nem,	-te,	.
12B-\ 12e- 12g-	.	12b-\ 12ee- 12bb-	.	.	.	.	.
12B-\J) 12e- 12g-	.	12b-\J) 12ee- 12bb-	.	.	.	.	.
=95	=95	=95	=95	=95	=95	=95	=95
*8ba	*	*	*	*	*	*	*
(<4.GGG-^\ 4.GG-	.	(>4.G-^>/	.	4r	.	.	.
.	.	.	.	4r	.	.	.
8FFF\ 8FF	.	8F/	.	.	.	.	.
*	*	*tuplet	*	*	*	*	*
12EEE-\L 12EE-	.	12e-</L	.	8an/	Śle-	La	.
12DDD-\ 12DD-	.	12d-</	.	.	.	.	.
.	.	.	.	8a/	-pem	ter-	.
12CCC-X\J 12CC-X	.	12c-X</J)	.	.	.	.	.
!!LO:LB:g=original	!	!	!	!	!	!	!
=96	=96	=96	=96	=96	=96	=96	=96
*	*	*	*	*^	*	*	*
*	*	*Xtuplet	*	*	*	*	*	*
(>12BBBB-\) 12BBB-	.	(12B-</	.	8gg-\	8ryy	prze-	-reur	.
*X8ba	*	*	*	*	*	*	*	*
!LO:TX:b:i:t=loco	!	!	!	!	!	!	!	!
12G-\L) 12B- 12e- 12g-	.	(12b-\L) 12ee- 12bb-	.	.	.	.	.	.
.	.	.	.	8gg-\	8ryy	-ra-	a	.
12G-\J 12B- 12e- 12g-	.	12b-\J 12ee- 12bb-	.	.	.	.	.	.
12G-\L 12e- 12g-	.	12an^\L 12ee- 12aan	.	4.ee-\	4.ryy	-że-	veu-	.
12d-\ 12e- 12g-	.	12a\ 12ee- 12aa	.	.	.	.	.	.
12c-X\J 12e- 12g-	.	12a\J 12ee- 12aa	.	.	.	.	.	.
12c-\L 12e- 12g-	.	12a\L 12ee- 12aa	.	.	.	.	.	.
12B-\ 12e- 12g-	.	12b-\ 12ee- 12bb-	.	.	.	.	.	.
.	.	.	.	8b-/	16b-\	-niem	gle	.
12B-\J 12e- 12g-	.	12b-\J) 12ee- 12bb-	.	.	.	.	.	.
.	.	.	.	.	16b-\	.	l'es	.
*	*	*	*	*v	*v	*	*	*
=97	=97	=97	=97	=97	=97	=97	=97
*	*	*^	*	*	*	*	*
12AAA-\L 12AA-	.	(4cc-X^^/ 4gg- 4ccc-X	12r	fff	2gg-\	prze-	pa-	.
12E-\ 12A- 12e-	.	.	12c-X\L 12g- 12cc-	>	.	.	.	.
12E-\J 12A- 12e-	.	.	12c-\J 12g- 12cc-	.	.	.	.	.
12E-\L 12A- 12e-	.	4gg-/	12g-\L 12cc-	.	.	.	.	.
12E-\ 12A- 12e-	.	.	12g-\ 12cc-	.	.	.	.	.
12E-\J 12A- 12e-	.	.	12g-\J 12cc-	.	.	.	.	.
12F\L 12c-X 12e-	.	4aa-/	12a-\L 12ee-	.	8ff\	-stwór	-ce	.
12G-\ 12c- 12e-	.	.	12a-\ 12ee-	.	.	.	.	.
.	.	.	.	.	8ff\	się	sans	.
12Gn\J 12c- 12e-	.	.	12a-\J 12ee-	.	.	.	.	.
=98	=98	=98	=98	=98	=98	=98	=98	=98
*tremolo	*	*	*tremolo	*	*	*	*	*
!LO:TX:t=P:problem: cyfra 3 pod tremolo	!	!	!	!	!	!	!	!
8A-\ 8c-X 8e-L	.	4gg-^^/	8g-\ 8cc-XL	.	4ee-\	przed	bor-	.
8A-\ 8c-X 8e-J	.	.	8g-\ 8cc-XJ	.	.	.	.	.
!LO:TX:t=P:problem: cyfra 3 pod tremolo	!	!	!	!	!	!	!	!
8An\ 8c- 8e-L	.	4ff^^/)	8f\ 8cc-L	.	8cc-X\	nim	-nes	.
8An\ 8c- 8e-J	.	.	8f\ 8cc-J	.	8cc-\	roz-	s'ou-	.
*	*	*Xtremolo	*	*	*	*	*	*
*Xtremolo	*	*	*	*	*	*	*	*
!LO:TX:t=P:problem: mixed beam	!	!	!	!	!LO:TX:a:i:t=rit.	!	!	!
(12A^\L 12cn 12e- 12g-	.	(8cc-^\L 8gg- 8ccc-X	4ryy	] <	8cc-\	-twie-	-vre à	.
12BBB-^</ 12BB-	.	.	.	.	.	.	.	.
.	.	8b-\J) 8ee- 8bb-	.	.	8b-\	-ra,	ses	.
12B-\J) 12e- 12g-	.	.	.	[[	.	.	.	.
=99	=99	=99	=99	=99	=99	=99	=99	=99
*^	*	*	*	*	*^	*	*	*
!LO:TX:t=P:problem: mixed beam	!	!	!	!	!	!	!	!	!	!
12c-X^>\L 12e- 12f	4ryy	.	(4ee-/	8a-^>\L 8aa-	.	4ee-/	8ee-\	I	yeux	.
12BBB-/ 12BB-	.	.	.	.	.	.	.	.	.	.
!	!	!	!	!	!LO:HP:b=2	!LO:TX:a:i:t=Con passione	!	!	!	!
.	.	.	.	8f\J 8ff	<	.	8ee-\	.	Et	.
12FF\J 12F	.	.	.	.	.	.	.	.	.	.
12BB-\L 12B-	4ryy	.	4ddn/	4a-\ 4aa-	.	8ddn\	4ryy	prze-	la	.
12B-\ 12b-	.	.	.	.	.	.	.	.	.	.
.	.	.	.	.	.	8dd\	.	-peł-	put-	.
12A-\J 12a-	.	.	.	.	.	.	.	.	.	.
4d-/	12G-\L 12g-	.	4dd-X/)	4b-\ 4bb-	.	8dd-X\	4ryy	-nio-	-ssau-	.
.	12F\ 12f	.	.	.	.	.	.	.	.	.
.	.	.	.	.	.	8dd-\	.	-ny	-ce	.
.	12F-X\J 12f-X	.	.	.	[[	.	.	.	.	.
*	*	*	*	*	*	*v	*v	*	*	*
!!LO:PB:g=original	!	!	!	!	!	!	!	!	!
=100	=100	=100	=100	=100	=100	=100	=100	=100	=100
!LO:TX:t=P:problem: mixed beam	!	!	!	!	!	!	!	!	!
!LO:TX:t=P:problem: łuk legato/ligatura w t. 99 obecna a w t. 100 brak	!	!	!	!	!	!	!	!	!
12E-\L 12e-	4ryy	.	(4dd-/	8g-^>\L 8gg-	.	8dd-\	wie-	é-	.
(>12BBB-/ 12BB-	.	.	.	.	.	.	.	.	.
!	!	!	!	!	!LO:HP:b=2	!	!	!	!
.	.	.	.	8e-\J 8ee-	<	8dd-\	-ku-	-ter-	.
12EE-/J 12E-	.	.	.	.	.	.	.	.	.
12BB-\L 12B-	4ryy	.	4ccn/	4g-\ 4gg-	.	8ccn\	-i-	-nel-	.
12A-\ 12a-	.	.	.	.	.	.	.	.	.
.	.	.	.	.	.	8cc\	-stą	-le	.
12G-\J 12g-	.	.	.	.	.	.	.	.	.
4A-/	12F\L 12f	.	4cc-X/)	4a-\ 4aa-	.	8cc-X\	mo-	lui	.
.	12E-\ 12e-	.	.	.	.	.	.	.	.
.	.	.	.	.	.	8cc-\	-cą	don-	.
.	12E--\J) 12e--	.	.	.	[[	.	.	.	.
*v	*v	*	*	*	*	*	*	*	*
=101	=101	=101	=101	=101	=101	=101	=101	=101
12D-\L 12d-	.	(4f^^/ 4ff	8b-\	>	8b-\	to-	-ne	.
12BBB-\ 12BB-	.	.	.	.	.	.	.	.
.	.	.	4cc-X\	.	8cc-X\	-pi	l'ou-	.
[12C-X\J [12c-X	.	.	.	.	.	.	.	.
!	!	!	!	!	!LO:TX:a:i:t=Poco ral-len-tan-do	!	!	!
!	!	!	!	!	!LO:TX:a:it=Poco ral-len-tan-do:dur=10eq:ext=cd:problem:text with extention lines	!	!	!
12C-\L] 12E- 12A- 12c-]	.	4e-^^/ 4ee-	.	.	4a-/	w swych	-bli	.
12BBB-\ 12BB-	.	.	.	.	.	.	.	.
.	.	.	4g-\ 4cc-	.	.	.	.	.
[12BB-\J [12B-	.	.	.	.	.	.	.	.
12BB-\L] 12Dn 12F 12B-]	.	4dn^^/ 4ddn	.	.	8f/	głę-	de	.
12BBB-\ 12BB-	.	.	.	.	.	.	.	.
.	.	.	[8f\ [>8b-	.	8f/	-biach	tout	.
[12AAn\J [12An	.	.	.	.	.	.	.	.
=102	=102	=102	=102	=102	=102	=102	=102	=102
*	*	*	*	*	*^	*	*	*
12AA\L] 12E- 12G- 12A]	.	4d-X^^/ 4dd-X	8f\] 8b-]	.	8g-/	4g-\	wszy-	ce	.
12BBB-\ 12BB-	.	.	.	.	.	.	.	.	.
.	.	.	4e-\ 4g-	.	8g-/	.	-stko	.	.
[12AAn\J [12An	.	.	.	.	.	.	.	.	.
12AA\L] 12E- 12G- 12A]	.	4cn^^/ 4cc	.	.	8ccn\	4ryy	co	qui	.
12BBB-\ 12BB-	.	.	.	.	.	.	.	.	.
.	.	.	4e-\ 4g-	.	8cc\	.	ją	l'op	.
[12BB-\J [12B-	.	.	.	.	.	.	.	.	.
*	*	*	*	*	*	*tuplet	*	*	*
!	!	!	!	!	!	!LO:TUP:b	!	!	!
12BB-\L] 12E- 12G- 12B-]	.	4c-X^^/) 4cc-X	.	.	8cc-X/	12cc-X\	zmo-	pri-	.
12BBB-\ 12BB-	.	.	.	.	.	12cc-\	.	-me	.
.	.	.	8e-\ 8f	] f	8cc-/	.	-gło,	.	.
12C-X\J 12c-X	.	.	.	.	.	12cc-\	.	l'in	.
*	*	*v	*v	*	*	*	*	*	*
*	*	*	*	*v	*v	*	*	*
!!LO:LB:g=original	!	!	!	!	!	!	!
=103	=103	=103	=103	=103	=103	=103	=103
*^	*	*	*	*	*	*	*
!	!	!	!	!	!LO:TX:a:i:t=Poco meno	!	!	!
(12G-/L	4BB-\ 4A-	.	2.c-X^^/ 2.e- 2.cc-X	<	4cc-X\	U-	sul-	.
12F/	.	.	.	.	.	.	.	.
12G-/J	.	.	.	.	.	.	.	.
12A-\L	4ryy	.	.	.	4.g-^^/	-rą-	-te,	.
12c-X\	.	.	.	[ >	.	.	.	.
12B-\J	.	.	.	.	.	.	.	.
12A-\L	4ryy	.	.	.	.	.	.	.
12G-\	.	.	.	.	.	.	.	.
.	.	.	.	.	8a-/	-go-	la	.
12F\J)	.	.	.	]	.	.	.	.
=104	=104	=104	=104	=104	=104	=104	=104	=104
*	*	*	*^	*	*	*	*	*
(12E-/L	2.BB-\	.	(4cc-X~/	4r	]	2g-/	-wi-	fau-	.
12F/	.	.	.	.	.	.	.	.	.
12G-/J	.	.	.	.	.	.	.	.	.
12A-/L	.	.	4.g-~/	4r	.	.	.	.	.
12c-X/	.	.	.	.	.	.	.	.	.
12B-/J	.	.	.	.	.	.	.	.	.
12A-/L	.	.	.	4f\	.	8f/	-skiem	-te	.
12G-/	.	.	.	.	.	.	.	.	.
.	.	.	8a-/)	.	.	8a-/	I	mor-	.
12F/J)	.	.	.	.	.	.	.	.	.
*	*	*	*v	*v	*	*	*	*	*
=105	=105	=105	=105	=105	=105	=105	=105	=105
!	!	!	!	!LO:DY:a	!	!	!	!
(12A-/L	2.BBB-\ 2.BB-	.	(>[4c-X^^/ [4dn 4g-	> >	4g-^^/	grze-	-tel-	.
12Gn/	.	.	.	.	.	.	.	.
12A-/J	.	.	.	.	.	.	.	.
!	!	!	!LO:TX:a:i:t=rallent.	!	!	!	!	!
12B-/L	.	.	4c-^^/]) 4d] 4f	.	4f/	-chem	-le	.
12A-/	.	.	.	.	.	.	.	.
12e-/J	.	.	.	.	.	.	.	.
12dn/L	.	.	4r	]]	4r	.	.	.
12d-X/	.	.	.	.	.	.	.	.
12c-X/J)	.	.	.	.	.	.	.	.
*v	*v	*	*	*	*	*	*	*
=106	=106	=106	=106	=106	=106	=106	=106
*	*	*	*^	*	*	*	*
!	!	!LO:TX:b:t=m.d.	!LO:HP:a	!	!LO:TX:a:i:t=Meno mosso	!	!	!
!	!	!	!LO:DY:b	!	!	!	!	!
(<4BB-^^\	.	(>12B-</L	p <	.	4r	.	.	.
.	.	12A-</	.	.	.	.	.	.
.	.	12G-</J	.	.	.	.	.	.
!	!	!LO:TX:b:t=m.s.	!	!	!	!	!	!
12F\L	.	4F<^^/	.	<	4f/	I	Et	.
12E-\	.	.	.	.	.	.	.	.
12F\J	.	.	.	.	.	.	.	.
12G-\L	.	4B-^^\	.	.	8b-\	wy-	la	.
12F\	.	.	.	.	.	.	.	.
.	.	.	.	.	8b-\	-peł-	cru-	.
12E-\J	.	.	[[	[[	.	.	.	.
*	*	*	*v	*v	*	*	*	*
!!LO:LB:g=original	!	!	!	!	!	!	!
=107	=107	=107	=107	=107	=107	=107	=107
*^	*	*	*	*^	*	*	*
!	!	!	!	!LO:DY:a	!	!	!	!	!
12D-/L	4ryy	.	8An/L	> >	8an/L	8a\	-nio-	-el-	.
12Cn/	.	.	.	.	.	.	.	.	.
*	*	*	*clefF4	*	*	*	*	*	*
.	.	.	8F/J	.	8f/J	8f\	.	-le	.
12FF/J	.	.	.	.	.	.	.	.	.
!	!	!	!	!	!LO:TX:a:t=Al_lar_gan_do	!	!	!	!
!	!	!	!	!	!LO:TX:t=Al_lar_gan_do:dur=3qh:ext=ud:problem:text with extention lines	!	!	!	!
12GG-/L	4ryy	.	4E-\	.	4e-/	4ryy	-ną	pé-	.
12FF/	.	.	.	.	.	.	.	.	.
[12GG-/J	.	.	.	.	.	.	.	.	.
12GG-/L]	4AAAn\	.	8D-/L	.	4f/	4ryy	po-	-ni-	.
12FF/	.	.	.	.	.	.	.	.	.
.	.	.	8C-X/J	] ]]	.	.	.	.	.
12EE-/J)	.	.	.	.	.	.	.	.	.
*	*	*	*	*	*v	*v	*	*	*
=108	=108	=108	=108	=108	=108	=108	=108	=108
*	*	*	*	*^	*	*	*	*
!	!	!	!LO:TX:b:t=di_mi_nu_en_do:dur=h:ext=cd:problem:text with extention lines	!	!LO:HP:t=di_mi_nu_en_do	!	!	!	!
2.DDn/	12BBB-\L	.	2.BB-/)	>	>	2f/	-ku-	-ten-	.
.	12AAAn\	.	.	.	.	.	.	.	.
.	[12BBB-\J	.	.	.	.	.	.	.	.
.	12BBB-\L]	.	.	.	.	.	.	.	.
.	12AAA\	.	.	.	.	.	.	.	.
.	[12BBB-\J	.	.	.	.	.	.	.	.
.	12BBB-\L]	.	.	.	.	4f/	-tą,	-ce,	.
.	12AAA\	.	.	.	.	.	.	.	.
.	12BBB-\J	.	.	.	.	.	.	.	.
*	*	*	*	*v	*v	*	*	*	*
*v	*v	*	*	*	*	*	*	*
=109	=109	=109	=109	=109	=109	=109	=109
12CC-X/L	.	2.EE-X~>/ 2.AAn	] pp	2.r	.	.	.
12BBB-/	.	.	.	.	.	.	.
[12CC-/J	.	.	.	.	.	.	.
12CC-/L]	.	.	.	.	.	.	.
12BBB-/	.	.	.	.	.	.	.
[12CC-/J	.	.	.	.	.	.	.
12CC-/L]	.	.	.	.	.	.	.
12BBB-/	.	.	.	.	.	.	.
12CC-/J	.	.	.	.	.	.	.
*	*	*clefG2	*	*	*	*	*
!!LO:LB:g=original	!	!	!	!	!	!	!
=110||	=110||	=110||	=110||	=110||	=110||	=110||	=110||
*k[b-e-a-d-gn]	*	*k[b-e-a-d-gn]	*	*k[b-e-a-d-gn]	*	*	*
!LO:TX:t=P:problem: kasownik po znakach przykluczowych	!	!LO:TX:t=P:problem: kasownik po znakach przykluczowych	!	!LO:TX:a:i:t=Allegro agitato	!	!	!
!	!	!	!	!LO:TX:t=P:problem: kasownik po znakach przykluczowych	!	!	!
(<12CCn\L	.	(>12AA-</L	pp	2.r	.	.	.
12FF\	.	12F</	.	.	.	.	.
12C\J	.	12c</J	.	.	.	.	.
12C\L	.	12c/L	<	.	.	.	.
12F\	.	12f/	.	.	.	.	.
12c\J	.	12cc/J	.	.	.	.	.
12F/L	.	12f/L	[ >	.	.	.	.
12C/	.	12c/	.	.	.	.	.
12FF/J)	.	12F/J)	]]	.	.	.	.
=111	=111	=111	=111	=111	=111	=111	=111
*	*	*	*	*^	*	*	*
(<12CC\L	.	(12C</L	.	2.r	4ryy	.	.	.
12FF\	.	12F</	.	.	.	.	.	.
12C\J	.	12c</J	.	.	.	.	.	.
12C\L	.	12c/L	<	.	4ryy	.	.	.
12F\	.	12f/	.	.	.	.	.	.
12c\J	.	12cc/J	.	.	.	.	.	.
12F/L	.	12f/L	[ >	.	8ryy	.	.	.
12C/	.	12c/	.	.	.	.	.	.
.	.	.	.	.	8cc\	.	La	.
12FF/J)	.	12F/J)	]]	.	.	.	.	.
*	*	*	*	*v	*v	*	*	*
=112	=112	=112	=112	=112	=112	=112	=112
(<12CC\L	.	(>12C</L	.	4cc^\	Wsty-	hon-	.
12FF\	.	12F</	<	.	.	.	.
12C\J	.	12c</J	.	.	.	.	.
12C\L	.	12c/L	<	4.c^>/	-du	-te	.
12F\	.	12f/	.	.	.	.	.
12c\J	.	12cc/J	.	.	.	.	.
12F/L	.	12f/L	[ >	.	.	.	.
12C/	.	12c/	.	.	.	.	.
.	.	.	.	8cc\	i	l'op-	.
12FF/J)	.	12F/J)	]]	.	.	.	.
!!LO:PB:g=original	!	!	!	!	!	!	!
=113	=113	=113	=113	=113	=113	=113	=113
(<12DD-\L	.	(>12D-</L	.	[<4dd-^\	hań-	-pro-	.
!	!	!LO:TX:b:i:t=simile	!	!	!	!	!
12FF\	.	12F</	.	.	.	.	.
12D-\J	.	12d-</J	.	.	.	.	.
12D-\L	.	12d-/L	.	4dd-^\]	-by	.	.
12F\	.	12f/	.	.	.	.	.
!	!	!	!LO:HP:a	!	!	!	!
12d-\J	.	12dd-/J	<	.	.	.	.
12F/L	.	12f/L	.	8d-/	po-	-bre	.
12D-/	.	12d-/	.	.	.	.	.
.	.	.	.	8d-/	-ciem-	la	.
12FF/J)	.	12F/J)	.	.	.	.	.
=114	=114	=114	=114	=114	=114	=114	=114
(<12CC\L	.	(>12C</L	.	2c^>/	-nia-	sombre	.
12FF\	.	12F</	.	.	.	.	.
12C\J	.	12c</J	.	.	.	.	.
12C\L	.	12c/L	.	.	.	.	.
12F\	.	12f/	.	.	.	.	.
12c\J	.	12cc/J	.	.	.	.	.
12F/L	.	12f/L	[	4cc\	-łą	au-	.
12C/	.	12c/	<	.	.	.	.
12FF/J)	.	12F/J)	.	.	.	.	.
=115	=115	=115	=115	=115	=115	=115	=115
(<12DD-\L	.	(>12D-</L	.	4dd-^\	twa-	-da-	.
12FF\	.	12F</	.	.	.	.	.
12D-\J	.	12d-</J	.	.	.	.	.
12D-\L	.	12d-/L	.	4.dd-^\	-rzą	-ce	.
12F\	.	12f/	.	.	.	.	.
12d-\J	.	12dd-/J	.	.	.	.	.
12F/L	.	12f/L	.	.	.	.	.
12D-/	.	12d-/	.	.	.	.	.
.	.	.	.	8dd-\	I	Qui	.
12FF/J)	.	12F/J)	.	.	.	.	.
=116	=116	=116	=116	=116	=116	=116	=116
(<12BBBn\L	.	(>12BBn</L	.	[<4.ddn^\	po-	vi'o-	.
12FF\	.	12F</	[	.	.	.	.
12BBny\J	.	12Bn</J	.	.	.	.	.
12BB\L	.	12B/L	.	.	.	.	.
12F\	.	12f/	f	.	.	.	.
.	.	.	.	8dd^\]	-de-	.	.
12Bny\J	.	12bn/J	.	.	.	.	.
12F/L	.	12f/L	.	8dd^\	-pta-	-le	.
12BB/	.	12B/	.	.	.	.	.
.	.	.	.	8dd^\	-niem	les	.
12FF/J)	.	12F/J)	.	.	.	.	.
!!LO:LB:g=original	!	!	!	!	!	!	!
=117	=117	=117	=117	=117	=117	=117	=117
(<12CC\L	.	(>12C</L	.	2ee-^\	Świę-	sain-	.
12FF\	.	12F</	.	.	.	.	.
12C\J	.	12c</J	.	.	.	.	.
12C\L	.	12c/L	.	.	.	.	.
12F\	.	12f/	.	.	.	.	.
12c\J	.	12cc/J	.	.	.	.	.
!	!	!	!	!	!	!	!LO:HP:a
12F/L	.	12f/L	.	4ee-\	-tych	-tes	<
12C/	.	12c/	.	.	.	.	.
12FF/J)	.	12F/J)	<	.	.	.	.
=118	=118	=118	=118	=118	=118	=118	=118
*	*	*	*^	*	*	*	*
(<12AAA-\L	.	(>12AA-</L	.	.	2een^\	Bo-	lois	.
12EEn\	.	12En</	.	.	.	.	.	.
12AA-\J	.	12A-</J	.	.	.	.	.	.
!	!	!	!	!LO:HP:t=cresc. molto	!	!	!	!
12AA-\L	.	12A-/L	.	<	.	.	.	.
!	!	!LO:TX:a:i:t=rall.	!	!	!	!	!	!
12En\	.	12en/	.	.	.	.	.	.
12A-\J	.	12a-/J	.	.	.	.	.	.
12E/L	.	12e/L	.	.	4ee\	-żych	de	.
12AA-/	.	12A-/	.	.	.	.	.	.
12EE/J)	.	12En/J)	.	.	.	.	.	.
*	*	*	*v	*v	*	*	*	*
=119	=119	=119	=119	=119	=119	=119	=119
(<12GGG\L	.	(12GG</L	.	4.ff^\	praw.	Dieu!	.
12FF\	.	12F</	.	.	.	.	.
12BB-\J	.	12B-</J	.	.	.	.	.
12D-\L	.	12d-/L	.	.	.	.	.
12F\	.	12f/	.	.	.	.	.
.	.	.	.	8r	.	.	[
12B-\J	.	12dd-/J	.	.	.	.	.
12F/L	.	12f\L	.	4b-\	I	Et	.
12BB-/	.	12b-\	[	.	.	.	.
12DD-/J)	.	12ff\J)	.	.	.	.	.
!!LO:LB:g=original	!	!	!	!	!	!	!
=120||	=120||	=120||	=120||	=120||	=120||	=120||	=120||
*M5/4	*	*M5/4	*	*M5/4	*	*	*
*	*	*Xtremolo	*	*	*	*	*
*	*	*tuplet	*	*	*	*	*
!	!	!LO:TX:b:i:t=a tempo	!	!LO:TX:a:i:t=a tempo	!	!	!LO:DY:a
!	!	!LO:TUP:a	!	!	!	!	!
4%5ryy	.	(12g^\L 12b- 12ee- 12gg	fff	4.gg\	krwa-	la	ff
.	.	(<12BBB-<^</ 12BB-<	.	.	.	.	.
.	.	12g\J 12b- 12ee- 12gg	.	.	.	.	.
!	!	!LO:TUP:a	!	!	!	!	!
.	.	12f^\L 12a- 12dd- 12ff	.	.	.	.	.
.	.	12DD-<^</ 12D-<	.	.	.	.	.
!	!	!	!	!LO:TX:i:a:t=Con passione	!	!	!
.	.	.	.	8ff\	-wą	san-	.
.	.	12f\J 12a- 12dd- 12ff	.	.	.	.	.
!	!	!LO:TUP:a	!	!	!	!	!
.	.	12e-^\L 12g 12b- 12ee-	.	4ee-\	zem-	-glan-	.
.	.	12EE-<^</ 12E-<	.	.	.	.	.
.	.	12e-\J 12g 12b- 12ee-	.	.	.	.	.
!	!	!LO:TUP:a	!	!	!	!	!
.	.	12d-^\L 12f 12b- 12dd-	.	8.dd-\	-sty	-te	.
.	.	12GG<^</ 12G<	.	.	.	.	.
.	.	12d-\J 12f 12b- 12dd-	.	.	.	.	.
.	.	.	.	16dd-\	po-	ven-	.
!	!	!LO:TUP:a	!	!	!	!	!
.	.	12c^\L 12e- 12a- 12cc	.	8cc\	-chod-	-gean-	.
.	.	12AA-<^</) 12A-<	.	.	.	.	.
.	.	.	.	8cc\	-nią	-ce	.
.	.	12c\J) 12e- 12a- 12cc	.	.	.	.	.
=121	=121	=121	=121	=121	=121	=121	=121
!	!	!LO:TUP:a	!	!	!	!	!
4%5ryy	.	(12f^\L 12a- 12dd- 12ff	.	8r	.	.	.
.	.	(<12AAA-<^</ 12AA-<	.	.	.	.	.
.	.	.	.	8ff\	I	Et	.
.	.	12f\J 12a- 12dd- 12ff	.	.	.	.	.
!	!	!LO:TUP:a	!	!	!	!	!
.	.	12e-^\L 12g 12cc 12ee-	.	4ee-\	bó-	la	.
.	.	12CC<^</ 12C<	.	.	.	.	.
.	.	12e-\J 12g 12cc 12ee-	.	.	.	.	.
!	!	!LO:TUP:a	!	!	!	!	!
.	.	12d-^\L 12f 12a- 12dd-	.	4dd-\	-lu,	dou-	.
!	!	!LO:TX:a:i:t=rallen-tando	!	!	!	!	!
.	.	12DD-<^</ 12D-<	.	.	.	.	.
.	.	12d-\J 12f 12a- 12dd-	.	.	.	.	.
!	!	!LO:TUP:a	!	!	!	!	!
.	.	12c^\L 12f 12a- 12cc	.	4cc\	bó-	-leur	.
.	.	12FF<^</ 12F<	.	.	.	.	.
.	.	12c\J 12f 12a- 12cc	.	.	.	.	.
!	!	!LO:TUP:a	!	!	!	!	!
.	.	12B-^\L 12d- 12f 12b-	.	8b-\	-lu	é-	.
.	.	12GG<^</) 12G<	.	.	.	.	.
!	!	!	!	!LO:TX:a:i:t=rall.	!	!	!
.	.	.	.	8b-\	strasz-	-ter-	.
.	.	12B-\J 12d- 12f 12b-	.	.	.	.	.
!!LO:LB:g=original	!	!	!	!	!	!	!
=122||	=122||	=122||	=122||	=122||	=122||	=122||	=122||
*M3/4	*	*M3/4	*	*M3/4	*	*	*
!	!	!LO:TX:b:i:t=rall.	!	!	!	!	!
!	!	!LO:TUP:a	!	!	!	!	!
4ryy	.	12d-^^\L 12en 12g 12b-	.	4b-;\	-ne-	-nel-	.
.	.	12AA-<^^</ 12A-<	.	.	.	.	.
.	.	12d-\J 12e 12g 12b-	.	.	.	.	.
!	!	!LO:TUP:a	!	!	!	!	!
4ryy	.	12c^^\L 12d- 12f 12a-	.	4a-/	-go	-le	.
.	.	12AAA-<^^</ 12AA-<	.	.	.	.	.
.	.	12c\J) 12d- 12f 12a-	.	.	.	.	.
4BBB-^/ 4BB-	.	(>4A-/ 4d- 4a-	.	4r	.	.	.
*clefG2	*	*	*	*	*	*	*
=123	=123	=123	=123	=123	=123	=123	=123
*	*	*8va	*	*	*	*	*
*^	*	*^	*	*	*	*	*
!	!	!	!	!	!	!LO:TX:t=P:problem: problem wyświetlania kreski taktowej w VHV	!	!	!
(2a-^>/	2.d-^>\ 2.dd-	.	((>2aa-^/ 2aaa-	2.ddd-\	fff	2.r;	.	.	.
4g;/)	.	.	4gg;/))) 4ggg	.	.	.	.	.	.
*v	*v	*	*	*	*	*	*	*	*
*	*	*v	*v	*	*	*	*	*
*	*	*X8va	*	*	*	*	*
=124;<	=124	=124	=124	=124	=124	=124;	=124
*8ba	*	*	*	*	*	*	*
[2.BB-/ [2.B-	.	(>4G/ 4B- 4en	p	4r;	.	.	.
!	!	!	!	!LO:TX:a:i:t=Adagio.	!	!	!
.	.	2F/) 2A- 2f	>]	4r	.	.	.
.	.	.	.	4dd-\	tak	Som-	.
*	*	*clefF4	*	*	*	*	*
=125||	=125||	=125||	=125||	=125||	=125||	=125||	=125||
*M4/4	*	*M4/4	*	*M4/4	*	*	*
*	*	*^	*	*	*	*	*
*	*	*	*^	*	*	*	*	*
!	!	!LO:TX:b:i:t=sub.	!	!	!	!	!	!	!
1BB-] 1B-]	.	(4A-/ 4c	2F\	2r	p	4cc\	po-	-bre	.
.	.	4G/) 4B-	.	.	.	4b-\	-żą-	fan-	.
.	.	(4B-/	2En\	(<4GG\	.	4b-\	-da-	-tô-	.
.	.	4A-/)	.	4AA-\)	.	4a-/	-nem	-me	.
*	*	*v	*v	*v	*	*	*	*	*
*X8ba	*	*	*	*	*	*	*
=126	=126	=126	=126	=126	=126	=126	=126
*	*	*	*	*^	*	*	*
(2G~>/ 2d-	.	(2D-~\ 2A-	pp >	8a-/	4.ryy	a	qui	.
.	.	.	.	8r	.	.	.	.
.	.	.	.	8a-/	.	tak	vient	.
.	.	.	.	8r	8a-\	.	cru	.
2C~>/) 2cn	.	2BB-~\) 2G	.	4.g/	2ryy	żrą-	el	.
.	.	.	.	8en/	.	-cem	et	.
*	*	*	*	*v	*v	*	*	*
=127	=127	=127	=127	=127	=127	=127	=127
!	!	!LO:TX:b:i:t=morendo	!	!	!	!	!
[1C; [1A-	.	1AA-; [1F	] ppp	(4.en/	wid-	dé-	.
.	.	.	.	8f/)	.	-si-	.
.	.	.	.	2f;/	-mem.	-ré.	.
=128	=128	=128	=128	=128	=128	=128	=128
2C/] 2A-]	.	2AA-/ 2F]	.	1r;	.	.	.
2r;	.	2r;	.	.	.	.	.
==	==	==	==	==	==	==	==
*-	*-	*-	*-	*-	*-	*-	*-
!!!system-decoration: s1{(s2,s3)}
!!!RDF**kern: > = above
!!!RDF**kern: < = below
!!!RDF**kern: N = linked
!!!ENC: Berenika Jozajtis
!!!END: 2023-10-01
!!!EED: Jan Barakat
!!!EEV: 2023-11-24
